X: 17
T:Butterd Pease. WCl.17
M:C|
L:1/4
Q:120
S:William Clarke MS,Lincoln,1770.
R:reel
O:Lincoln
A:England
N:Both F#s marked on stave in MS. Last 2 bars of A are as in MS...
Z:vmp.Barry Callaghan
K:G
Bdd  c/2B/2|cee d/2c/2|Bddc/2B/2|cAA2|!
Bdd c/2B/2|cee d/2c/2|c/2d/2 e B/2c/2 d|BAA2:|!
|:Bdd e/2f/2|g/2f/2e/2d/2 g2|Bdd c/2B/2|cAA2|!
Bdd e/2f/2|g/2f/2e/2d/2 g2|B/2c/2 d A/2B/2 c|BGG2:|]
